svg/u1f3b3.svg

<svg viewBox="0 0 128 128" xmlns="http://www.w3.org/2000/svg">
  <path d="M99.05,3.71c-9.68,0-10.04,10.11-9.54,14.57c0.58,5.14,2.57,12.35,2.57,19.56s-1.03,11.67-2.75,15.44 c-1.72,3.77-6.01,10.15-6.6,22.84c-0.72,15.41,6.63,36.21,8.78,38c1.77,1.48,14.39,1.59,15.77,0.36c1.54-1.37,9.67-17.33,9.5-36.21 c-0.17-18.87-11.29-24.91-10.93-40.87c0.2-8.78,1.91-13.42,2.69-20.43C109.27,10.52,107.38,3.71,99.05,3.71z" fill="#D8CEC9"/>
  <path d="M44.49,4.18c-10.32,0.06-10.04,10.11-9.54,14.57c0.58,5.14,2.57,12.35,2.57,19.56 s-1.03,11.67-2.75,15.44c-1.72,3.77-6.01,10.15-6.6,22.84c-0.72,15.41,6.63,36.21,8.78,38c1.77,1.48,14.39,1.59,15.77,0.36 c1.54-1.37,7.77-17.09,7.6-35.96c-0.17-18.87-9.24-25.29-8.42-41.23c0.36-6.99,2.7-11.86,2.76-20.22 C54.71,11.06,52.82,4.13,44.49,4.18z" fill="#D8CEC9"/>
  <path d="M99.22,7.08c-4.57,0-7.07,4.99-6.37,11.5c0.69,6.51,2.31,14.13,2.58,22.45 c0.29,8.67-3.55,13.31-5.77,18.57s-3.46,9.98-3.46,9.98l2.36,30.35c0,0,1.66,4.85,3.74,4.99c2.08,0.14,12.19-2.08,18.71-12.75 s0.97-26.33-2.36-33.12c-2.82-5.76-5.7-9.93-6.1-16.77c-0.66-11.44,2.22-18.15,2.49-24.39C105.27,12.76,104.62,7.08,99.22,7.08z" fill="#F1EDED"/>
  <path d="M44.35,8.32c-4.16,0-7.07,3.19-5.96,12.06s2.33,11.97,2.47,19.87s-5.1,19.35-5.1,19.35l10.67,8.45 l6.1-10.12c0,0-3.33-6.93-3.6-16.35c-0.2-6.94,1.94-17.32,2.08-22.17C51.14,14.56,50.44,8.32,44.35,8.32z" fill="#EFEEEC"/>
  <path d="M71.8,4.96c-9.5,0-9.67,10.37-9.5,15.06c0.18,4.84,2.69,12.91,2.69,20.43s-1.08,12.19-2.87,16.13 c-1.79,3.94-6.63,10.58-7.17,23.84s8.6,38.32,10.04,39.61c1.79,1.61,14.51,1.1,15.95-0.18c1.61-1.43,9.86-18.46,9.68-38.18 c-0.18-19.72-12.33-25.64-11.83-41.41c0.36-11.29,2.37-13.79,2.69-21.15C81.84,10.88,78.62,4.96,71.8,4.96z" fill="#D8CEC9"/>
  <path d="M72.06,8.46c-4.28-0.31-7.34,3.88-5.82,13.86s2.63,16.35,2.49,20.79c-0.14,4.43-1.66,9.28-2.63,11.92 c-0.97,2.63-4.43,11.22-4.43,11.22s4.71-1.25,7.9,1.25c3.19,2.49,9.01,8.87,10.67,15.38c1.66,6.51,2.08,16.49,2.08,16.49 s5.13-6.79,4.16-19.54s-6.79-21.34-8.59-25.63c-1.37-3.26-2.22-6.93-2.22-10.67c0-8.87,2.63-17.18,2.63-22.72S77.74,8.88,72.06,8.46 z" fill="#F1EDEC"/>
  <path d="M97.77,8.29c-1.13-0.64-3.02,0.31-3.97,2.52c-0.94,2.2-0.88,5.29,0.88,5.79s3.34-1.7,3.84-4.03 S99.09,9.04,97.77,8.29z" fill="#FFFFFF"/>
  <path d="M70.69,8.79c-1.08-0.3-3.02,0.57-3.84,3.02s-0.5,4.79,0.69,5.35c1.78,0.84,3.65-1.26,4.28-3.65 C72.45,11.12,72.52,9.29,70.69,8.79z" fill="#FFFFFF"/>
  <path d="M44.17,9.36c1.2,1.14,0.63,3.59-0.76,5.1c-1.39,1.51-3.28,2.08-4.47,1.26 c-1.2-0.82-0.81-3.47,0.63-5.23C41.28,8.41,42.91,8.16,44.17,9.36z" fill="#FFFFFF"/>
  <path d="M41.97,50.92c-0.77-0.43-2.14-0.38-3.15,1.83c-1.01,2.2-1.95,4.35-1.95,4.35l3.4,1.76 c0,0,1.57-2.96,2.14-4.47S43.1,51.55,41.97,50.92z" fill="#FFFFFF"/>
  <path d="M63.95,63.77c0,0,1.83-5.23,2.58-7.31s2.14-5.29,3.78-4.41c1.64,0.88,0.44,4.66-0.25,6.55 c-0.69,1.89-2.58,7.24-2.58,7.24L63.95,63.77z" fill="#FFFFFF"/>
  <path d="M97.39,49.29c-1.35-0.51-2.77,1.32-4.53,5.42s-1.89,4.72-2.27,5.73c-0.38,1.01-0.76,3.15,0.88,3.84 c1.64,0.69,2.69-1.51,3.21-2.58c0.94-1.95,1.89-4.47,2.83-6.8S99.22,49.98,97.39,49.29z" fill="#FFFFFF"/>
  <path d="M91.41,29.87l15.05,0.02c0,0-0.2,1.42-0.29,2.51c-0.08,0.94-0.21,2.65-0.21,2.65l-13.98,0.01 c0,0-0.07-1.26-0.26-2.77C91.61,31.36,91.41,29.87,91.41,29.87z" fill="#FC5027"/>
  <path d="M92.02,40.81l13.96,0.01c0,0,0.17,1.5,0.33,2.5s0.51,2.58,0.51,2.58l-15.29-0.04 c0,0,0.21-1.4,0.32-2.56C91.96,42.12,92.02,40.81,92.02,40.81z" fill="#FC5027"/>
  <path d="M64.3,32.54l15.16,0.05c0,0-0.24,1.56-0.35,2.84c-0.12,1.32-0.21,2.66-0.21,2.66H64.91 c0,0-0.14-1.44-0.25-2.72C64.55,34.09,64.3,32.54,64.3,32.54z" fill="#FC5027"/>
  <path d="M64.91,44.11l14.02,0.02c0,0,0.17,1.64,0.48,3.01c0.2,0.89,0.62,2.35,0.62,2.35l-15.72,0 c0,0,0.25-1.7,0.36-2.59S64.91,44.11,64.91,44.11z" fill="#FC5027"/>
  <path d="M36.65,29.04l16.59-0.01c0,0-0.4,2.1-0.57,2.92c-0.23,1.12-0.49,2.62-0.49,2.62l-14.81-0.02 c0,0-0.14-1.62-0.28-2.68C36.9,30.6,36.65,29.04,36.65,29.04z" fill="#FC5027"/>
  <path d="M37.51,39.93l14.35,0.02c0,0,0.06,1.91,0.11,2.63c0.06,0.72,0.33,2.93,0.33,2.93l-15.21,0 c0,0,0.2-1.99,0.28-3.06C37.44,41.49,37.51,39.93,37.51,39.93z" fill="#FC5027"/>
  <path d="M16.55,109.93c11.42,17.31,39.44,19.54,53.33,3.77s10.71-41.86-6.59-52.51 C46.45,50.83,5.16,92.67,16.55,109.93z" fill="#474C4F"/>
  <path d="M22.67,62.95c-11.02,8.08-16.66,26.71-8.35,43.14c0.65,1.29,1.33,2.62,2.23,3.83 c2,2.71,28.14,7.06,41.44-7.42c14.22-15.48,9.89-37.09,5.3-41.32c-1.2-1.1-2.76-1.59-4.12-2.24C43.98,51.8,30.44,57.26,22.67,62.95z " fill="#5E6367"/>
  <path d="M41.47,87.01c-0.19,3.27,2.16,4.93,4.38,5.1c2.22,0.17,5.26-0.94,5.43-4.38 c0.17-3.33-1.94-5.27-4.82-5.32C43.78,82.36,41.64,84.19,41.47,87.01z" fill="#191919"/>
  <path d="M31.98,74.25c-2.82,0.22-4.21,2.21-4.32,4.71c-0.11,2.38,1.39,4.99,5.1,4.93 c3.33-0.05,4.95-2.55,4.59-5.24C36.94,75.58,34.86,74.03,31.98,74.25z" fill="#191919"/>
  <path d="M28.81,94.18c-2.99,0.11-4.21,2.22-4.27,4.38c-0.06,2.16,1.61,4.33,4.44,4.27 c2.94-0.06,4.27-2,4.32-4.27S31.86,94.07,28.81,94.18z" fill="#191919"/>
</svg>

<svg viewBox="0 0 128 128" xmlns="http://www.w3.org/2000/svg">
  <defs/>
  <path d="M99.05,3.71 C89.37,3.71 89.01,13.82 89.51,18.28 C90.09,23.42 92.08,30.63 92.08,37.84 C92.08,45.05 91.05,49.51 89.33,53.28 C87.61,57.05 83.32,63.43 82.73,76.12 C82.01,91.53 89.36,112.33 91.51,114.12 C93.28,115.6 105.9,115.71 107.28,114.48 C108.82,113.11 116.95,97.15 116.78,78.27 C116.61,59.4 105.49,53.36 105.85,37.4 C106.05,28.62 107.76,23.98 108.54,16.97 C109.27,10.52 107.38,3.71 99.05,3.71 Z" fill="#D8CEC9"/>
  <path d="M44.49,4.18 C34.17,4.24 34.45,14.29 34.95,18.75 C35.53,23.89 37.52,31.1 37.52,38.31 C37.52,45.52 36.49,49.98 34.77,53.75 C33.05,57.52 28.76,63.9 28.17,76.59 C27.45,92 34.8,112.8 36.95,114.59 C38.72,116.07 51.34,116.18 52.72,114.95 C54.26,113.58 60.49,97.86 60.32,78.99 C60.15,60.12 51.08,53.7 51.9,37.76 C52.26,30.77 54.6,25.9 54.66,17.54 C54.71,11.06 52.82,4.13 44.49,4.18 Z" fill="#D8CEC9"/>
  <path d="M99.22,7.08 C94.65,7.08 92.15,12.07 92.85,18.58 C93.54,25.09 95.16,32.71 95.43,41.03 C95.72,49.7 91.88,54.34 89.66,59.6 C87.44,64.86 86.2,69.58 86.2,69.58 L88.56,99.93 C88.56,99.93 90.22,104.78 92.3,104.92 C94.38,105.06 104.49,102.84 111.01,92.17 C117.53,81.5 111.98,65.84 108.65,59.05 C105.83,53.29 102.95,49.12 102.55,42.28 C101.89,30.84 104.77,24.13 105.04,17.89 C105.27,12.76 104.62,7.08 99.22,7.08 Z" fill="#F1EDED"/>
  <path d="M44.35,8.32 C40.19,8.32 37.28,11.51 38.39,20.38 C39.5,29.25 40.72,32.35 40.86,40.25 C41,48.15 35.76,59.6 35.76,59.6 L46.43,68.05 L52.53,57.93 C52.53,57.93 49.2,51 48.93,41.58 C48.73,34.64 50.87,24.26 51.01,19.41 C51.14,14.56 50.44,8.32 44.35,8.32 Z" fill="#EFEEEC"/>
  <path d="M71.8,4.96 C62.3,4.96 62.13,15.33 62.3,20.02 C62.48,24.86 64.99,32.93 64.99,40.45 C64.99,47.97 63.91,52.64 62.12,56.58 C60.33,60.52 55.49,67.16 54.95,80.42 C54.41,93.68 63.55,118.74 64.99,120.03 C66.78,121.64 79.5,121.13 80.94,119.85 C82.55,118.42 90.8,101.39 90.62,81.67 C90.44,61.95 78.29,56.03 78.79,40.26 C79.15,28.97 81.16,26.47 81.48,19.11 C81.84,10.88 78.62,4.96 71.8,4.96 Z" fill="#D8CEC9"/>
  <path d="M72.06,8.46 C67.78,8.15 64.72,12.34 66.24,22.32 C67.76,32.3 68.87,38.67 68.73,43.11 C68.59,47.54 67.07,52.39 66.1,55.03 C65.13,57.66 61.67,66.25 61.67,66.25 C61.67,66.25 66.38,65 69.57,67.5 C72.76,69.99 78.58,76.37 80.24,82.88 C81.9,89.39 82.32,99.37 82.32,99.37 C82.32,99.37 87.45,92.58 86.48,79.83 C85.51,67.08 79.69,58.49 77.89,54.2 C76.52,50.94 75.67,47.27 75.67,43.53 C75.67,34.66 78.3,26.35 78.3,20.81 C78.3,15.27 77.74,8.88 72.06,8.46 Z" fill="#F1EDEC"/>
  <path d="M97.77,8.29 C96.64,7.65 94.75,8.6 93.8,10.81 C92.86,13.01 92.92,16.1 94.68,16.6 C96.44,17.1 98.02,14.9 98.52,12.57 C99.02,10.24 99.09,9.04 97.77,8.29 Z" fill="#FFFFFF"/>
  <path d="M70.69,8.79 C69.61,8.49 67.67,9.36 66.85,11.81 C66.03,14.26 66.35,16.6 67.54,17.16 C69.32,18 71.19,15.9 71.82,13.51 C72.45,11.12 72.52,9.29 70.69,8.79 Z" fill="#FFFFFF"/>
  <path d="M44.17,9.36 C45.37,10.5 44.8,12.95 43.41,14.46 C42.02,15.97 40.13,16.54 38.94,15.72 C37.74,14.9 38.13,12.25 39.57,10.49 C41.28,8.41 42.91,8.16 44.17,9.36 Z" fill="#FFFFFF"/>
  <path d="M41.97,50.92 C41.2,50.49 39.83,50.54 38.82,52.75 C37.81,54.95 36.87,57.1 36.87,57.1 L40.27,58.86 C40.27,58.86 41.84,55.9 42.41,54.39 C42.98,52.88 43.1,51.55 41.97,50.92 Z" fill="#FFFFFF"/>
  <path d="M63.95,63.77 C63.95,63.77 65.78,58.54 66.53,56.46 C67.28,54.38 68.67,51.17 70.31,52.05 C71.95,52.93 70.75,56.71 70.06,58.6 C69.37,60.49 67.48,65.84 67.48,65.84 L63.95,63.77 Z" fill="#FFFFFF"/>
  <path d="M97.39,49.29 C96.04,48.78 94.62,50.61 92.86,54.71 C91.1,58.81 90.97,59.43 90.59,60.44 C90.21,61.45 89.83,63.59 91.47,64.28 C93.11,64.97 94.16,62.77 94.68,61.7 C95.62,59.75 96.57,57.23 97.51,54.9 C98.45,52.57 99.22,49.98 97.39,49.29 Z" fill="#FFFFFF"/>
  <path d="M91.41,29.87 L106.46,29.89 C106.46,29.89 106.26,31.31 106.17,32.4 C106.09,33.34 105.96,35.05 105.96,35.05 L91.98,35.06 C91.98,35.06 91.91,33.8 91.72,32.29 C91.61,31.36 91.41,29.87 91.41,29.87 Z" fill="#FC5027"/>
  <path d="M92.02,40.81 L105.98,40.82 C105.98,40.82 106.15,42.32 106.31,43.32 C106.47,44.32 106.82,45.9 106.82,45.9 L91.53,45.86 C91.53,45.86 91.74,44.46 91.85,43.3 C91.96,42.12 92.02,40.81 92.02,40.81 Z" fill="#FC5027"/>
  <path d="M64.3,32.54 L79.46,32.59 C79.46,32.59 79.22,34.15 79.11,35.43 C78.99,36.75 78.9,38.09 78.9,38.09 L64.91,38.09 C64.91,38.09 64.77,36.65 64.66,35.37 C64.55,34.09 64.3,32.54 64.3,32.54 Z" fill="#FC5027"/>
  <path d="M64.91,44.11 L78.93,44.13 C78.93,44.13 79.1,45.77 79.41,47.14 C79.61,48.03 80.03,49.49 80.03,49.49 L64.31,49.49 C64.31,49.49 64.56,47.79 64.67,46.9 C64.78,46.01 64.91,44.11 64.91,44.11 Z" fill="#FC5027"/>
  <path d="M36.65,29.04 L53.24,29.03 C53.24,29.03 52.84,31.13 52.67,31.95 C52.44,33.07 52.18,34.57 52.18,34.57 L37.37,34.55 C37.37,34.55 37.23,32.93 37.09,31.87 C36.9,30.6 36.65,29.04 36.65,29.04 Z" fill="#FC5027"/>
  <path d="M37.51,39.93 L51.86,39.95 C51.86,39.95 51.92,41.86 51.97,42.58 C52.03,43.3 52.3,45.51 52.3,45.51 L37.09,45.51 C37.09,45.51 37.29,43.52 37.37,42.45 C37.44,41.49 37.51,39.93 37.51,39.93 Z" fill="#FC5027"/>
  <path d="M16.55,109.93 C27.97,127.24 55.99,129.47 69.88,113.7 C83.77,97.93 80.59,71.84 63.29,61.19 C46.45,50.83 5.16,92.67 16.55,109.93 Z" fill="#474C4F"/>
  <path d="M22.67,62.95 C11.65,71.03 6.01,89.66 14.32,106.09 C14.97,107.38 15.65,108.71 16.55,109.92 C18.55,112.63 44.69,116.98 57.99,102.5 C72.21,87.02 67.88,65.41 63.29,61.18 C62.09,60.08 60.53,59.59 59.17,58.94 C43.98,51.8 30.44,57.26 22.67,62.95 Z" fill="#5E6367"/>
  <path d="M41.47,87.01 C41.28,90.28 43.63,91.94 45.85,92.11 C48.07,92.28 51.11,91.17 51.28,87.73 C51.45,84.4 49.34,82.46 46.46,82.41 C43.78,82.36 41.64,84.19 41.47,87.01 Z" fill="#191919"/>
  <path d="M31.98,74.25 C29.16,74.47 27.77,76.46 27.66,78.96 C27.55,81.34 29.05,83.95 32.76,83.89 C36.09,83.84 37.71,81.34 37.35,78.65 C36.94,75.58 34.86,74.03 31.98,74.25 Z" fill="#191919"/>
  <path d="M28.81,94.18 C25.82,94.29 24.6,96.4 24.54,98.56 C24.48,100.72 26.15,102.89 28.98,102.83 C31.92,102.77 33.25,100.83 33.3,98.56 C33.35,96.29 31.86,94.07 28.81,94.18 Z" fill="#191919"/>
</svg>
